X:209
T:Duke of Gordon's Birthday, The
R:Strathspey
B:The Athole Collection
M:C
L:1/8
K:G
B|G>DG>B G>D G<B|d>Bd>B A/A/A A>B|G>DG>B G>DG>B|1
d>cB>A G/G/G G:|2 D>CB,>A, G,/G,/G, G||
|:d|g>ab>g d/d/d d2|g>ab>g e/e/e e>f|g<be<g d<gB<g|A>GA>B G/G/G G:|
|:D|G>DG>D G>DG>B|d>Bg>B A/A/A AB/A/|G>EG>B G>D E/E/E|
D>CB,>A, G,/G,/G, G,||

